X:294
M:4/4
L:1/4
K:F
C3/4 F/4 | A3/2 A/ B3/2 A/ | A/ G2 z/ C3/4 E/4 | G3/2 F/ A3/2 G/ | G/ F2 z/ F3/4 A/4 | c3/2 c/ d3/2 c/ | c/ B2 z/ F/ G/ | A/4 !fermata!C3/4 A/4 !fermata!C3/4 G3/2 F/ | F3 C3/4 F/4 | A3/2 A/ B3/2 A/ | A/ G2 z/ C3/4 E/4 | G3/2 F/ A3/2 G/ | G/ F2 z/ F3/4 A/4 | c3/2 c/ d3/2 c/ | c/ B2 z/ F/ G/ | A/4 !fermata!C3/4 A/4 !fermata!C3/4 G3/2 F/ | F3 |]
